wp-content/themes/watts/images/facebook.svg

<svg height="60.99" viewBox="0 0 28.46 60.99" width="28.46" xmlns="http://www.w3.org/2000/svg"><path d="m12.93 18.77v8.4h-6.15v10.26h6.15v30.57h12.64v-30.57h8.48s.79-4.92 1.18-10.3h-9.61v-7a3 3 0 0 1 2.74-2.46h6.88v-10.67h-9.36c-13.26 0-12.95 10.23-12.95 11.77z" fill="#111627" transform="translate(-6.78 -6.96)"/></svg>

<svg id="facebook" data-name="Layer 1" xmlns="http://www.w3.org/2000/svg" width="28.46" height="60.99" viewBox="0 0 28.46 60.99">
  <defs>
    <style>
      .facebook-cls-1 {
        fill: #111627;
      }
    </style>
  </defs>
  <title>facebook</title>
  <path id="Facebook" class="facebook-cls-1" d="M12.93,18.77v8.4H6.78V37.43h6.15V68H25.57V37.43h8.48s.79-4.92,1.18-10.3H25.62v-7a3,3,0,0,1,2.74-2.46h6.88V7H25.88C12.62,7,12.93,17.23,12.93,18.77Z" transform="translate(-6.78 -6.96)"/>
</svg>
